svgs/thin/bag-shopping-plus.svg

<svg xmlns="http://www.w3.org/2000/svg" viewBox="0 0 448 512"><!--! Font Awesome Pro 6.6.0 by @fontawesome - https://fontawesome.com License - https://fontawesome.com/license (Commercial License) Copyright 2024 Fonticons, Inc. --><path d="M144 96l0 32 160 0 0-32c0-44.2-35.8-80-80-80s-80 35.8-80 80zm-16 32l0-32c0-53 43-96 96-96s96 43 96 96l0 32 80 0c26.5 0 48 21.5 48 48l0 240c0 53-43 96-96 96L96 512c-53 0-96-43-96-96L0 176c0-26.5 21.5-48 48-48l80 0zm8 16l-88 0c-17.7 0-32 14.3-32 32l0 240c0 44.2 35.8 80 80 80l256 0c44.2 0 80-35.8 80-80l0-240c0-17.7-14.3-32-32-32l-88 0-176 0zm0 176c0-4.4 3.6-8 8-8l72 0 0-72c0-4.4 3.6-8 8-8s8 3.6 8 8l0 72 72 0c4.4 0 8 3.6 8 8s-3.6 8-8 8l-72 0 0 72c0 4.4-3.6 8-8 8s-8-3.6-8-8l0-72-72 0c-4.4 0-8-3.6-8-8z"/></svg>

<svg xmlns="http://www.w3.org/2000/svg" viewBox="0 0 448 512"><!--! Font Awesome Pro 6.5.2 by @fontawesome - https://fontawesome.com License - https://fontawesome.com/license (Commercial License) Copyright 2024 Fonticons, Inc. --><path d="M144 96v32H304V96c0-44.2-35.8-80-80-80s-80 35.8-80 80zm-16 32V96c0-53 43-96 96-96s96 43 96 96v32h80c26.5 0 48 21.5 48 48V416c0 53-43 96-96 96H96c-53 0-96-43-96-96V176c0-26.5 21.5-48 48-48h80zm8 16H48c-17.7 0-32 14.3-32 32V416c0 44.2 35.8 80 80 80H352c44.2 0 80-35.8 80-80V176c0-17.7-14.3-32-32-32H312 136zm0 176c0-4.4 3.6-8 8-8h72V240c0-4.4 3.6-8 8-8s8 3.6 8 8v72h72c4.4 0 8 3.6 8 8s-3.6 8-8 8H232v72c0 4.4-3.6 8-8 8s-8-3.6-8-8V328H144c-4.4 0-8-3.6-8-8z"/></svg>
